**kern
*clefG2
*k[b-]
*M4/4
=1-
8a
4b-
8r
2b-
=2
1b-
=3
(16a
16g 16e)
4f
2g
(16f
16g)
=4
2f
2e 2c 2A
=5
8e
2e
(4f
8e
=6
16e)
4e
8e-
4d
16r
16e-
16r
16r
16d
=7
4c
2d
8c
8d
=8
1c 1A 1F
=9
4B-
8B-
8A
4A
4A
=10
4G
4A
16B- 16G
4A
16B-
16B-
16B-
=11
*-